X: 1
T: Lakes Of Killarney, The
M: 6/8
L: 1/8
R: jig
K: Edor
B,EF G2 A|Bec dBA|G2 E FED|CEC DB,A,|
B,EF G2 A|Bec dBA|G2 E BAG|AGF E{G}ED:|
E G/A/B efg|fed edB|bag agf|efg edB|
g2 d edB|GBd AFD|G2 B dBG|AGF E{G}ED:|
